X: 42831
T: Widow Brady, The
R: jig
M: 6/8
K: Dmajor
d2B|:AFD DFA|AFA B2d|AFD DFA|fed B2d|
AFD DFA|AFA B2A|def gfe|1 fdc d2B:|2 fdc d2f||
afd dcd|ecA AFA|fed dcd|efd efg|
aba g2e|fed cBA|Bcd efg|1 fdc d2f:|2 fdc d3||

